public/assets/images/security.svg

<svg width="24" height="25" viewBox="0 0 24 25" fill="none" xmlns="http://www.w3.org/2000/svg">
<g id="security">
<path id="Vector" d="M12 1.20117L3 5.20117V11.2012C3 16.7512 6.84 21.9412 12 23.2012C17.16 21.9412 21 16.7512 21 11.2012V5.20117L12 1.20117ZM12 12.1912H19C18.47 16.3112 15.72 19.9812 12 21.1312V12.2012H5V6.50117L12 3.39117V12.1912Z" fill="#A2A2FF"/>
</g>
</svg>

<svg width="24" height="25" fill="none" xmlns="http://www.w3.org/2000/svg"><path d="M12 1.201l-9 4v6c0 5.55 3.84 10.74 9 12 5.16-1.26 9-6.45 9-12v-6l-9-4zm0 10.99h7c-.53 4.12-3.28 7.79-7 8.94v-8.93H5v-5.7l7-3.11v8.8z" fill="#A2A2FF"/></svg>
